X: 7599
T: Coen's Memories
R: reel
M: 4/4
K: Cmajor
"C"GFDC "Dm7"DGAc|"G"dg (3a/g/f/g "F"fdcA|"Dm"F(3G/F/E/ FD "G"G/A/G FD|"F"CFAF "Dm"GFDF|
"F"CF (3G/F/E/F "C"G2 Ac|"G"dg (3a/g/f/g "F"fdcA|"Dm7"FGAc d2 cA|1 "F"G2 AF "G"G3 A:|2 "F"G2 "G"AF G2 Ac||
|:"G"dg (3a/g/f/g "F"agfd|"C"g2 ag "Dm7"fdcA|"C"c(3d/c/B/ cd "F"f2 af|"G"gfga "F"f2 dc|
"G"dg (3a/g/f/g "F"agfd|"C"g2 ag "Dm"fdcA|"F"FGAc "Dm7"d2 cA|1 "C"G2 "F"AF "G"G2 Ac:|2 "C"G2 "F"AF "G"G4||

